**kern	**kern
*Ilh	*Irh
*clefF4	*clefG2
*k[]	*k[]
*M2/4	*M2/4
*C:	*C:
*>Theme	*>Theme
=1-	=1-
4C	4cc
4c	4cc
=2	=2
4e	4gg
4c	4gg
=3	=3
4f	4aa
4c	4aa
=4	=4
4e	4gg
4c	4gg
=5	=5
4d	4ff
4B	4ff
=6	=6
4c	4ee
4A	4ee
=7	=7
4F	4dd
4G	(8.ddL
.	16eeJk
=8	=8
2C	2cc)
=9:|!|:	=9:|!
4e	4gg
4G	4gg
=10	=10
4d	4ff
4G	4ff
=11	=11
4c	4ee
4G	4ee
=12	=12
4B	4dd
4G	4dd
=13	=13
4e	4gg
4G	4gg
=14	=14
4d	4ff
4G	4ff
=15	=15
4c	(4ee
.	16ffQ
.	16eeQ
.	16ddQ
(8.cL	8.eeL
16dJk	16ffJk
=16	=16
*^	*
*	*	*
4c	2G	4ee
4B)	.	4dd)
*v	*v	*
*	*
=17	=17
4C	4cc
4c	4cc
=18	=18
4e	4gg
4c	4gg
=19	=19
4f	4aa
4c	4aa
=20	=20
4e	4gg
4c	4gg
=21	=21
4d	4ff
4B	4ff
=22	=22
4c	4ee
4A	4ee
=23	=23
4F	(4dd
.	16eeQ
.	16ddQ
.	16ccQ
4G	8.ddL
.	16eeJk
=24	=24
2C	2cc)
*>Variation 1	*>Variation 1
=25:|!	=25:|!|:
4C	16ddLL
.	16cc
.	16b
.	16ccJJ
4c	16bLL
.	16cc
.	16b
.	16ccJJ
=26	=26
4e	16aaLL
.	16gg
.	16ff#
.	16ggJJ
4c	16ff#LL
.	16gg
.	16ff#
.	16ggJJ
=27	=27
4f	16gg#LL
.	16aa
.	16ccc
.	16bbJJ
4c	16dddLL
.	16ccc
.	16bb
.	16aaJJ
=28	=28
4e	16aaLL
.	16gg
.	16eee
.	16dddJJ
8.r	16cccLL
.	16bb
.	16aa
16c#	[16ggJJ
=29	=29
4d	16ggLL]
.	16ff
.	16ddd
.	16cccJJ
8.r	16bbLL
.	16aa
.	16gg
16B	[16ffJJ
=30	=30
4c	16ffLL]
.	16ee
.	16ccc
.	16bbJJ
8.r	16aaLL
.	16gg
.	16ff
16A	16eeJJ
=31	=31
4F	8ddL
.	8aaJ
4G	8ggL
.	8bJ
=32	=32
4c	4cc
4C	4r
=33:|!|:	=33:|!
4e	16aaLL
.	16gg
.	16ff#
.	16ggJJ
4G	16ff#LL
.	16gg
.	16aa
.	16ggJJ
=34	=34
4d	16ggLL
.	16ff
.	16ee
.	16ffJJ
4G	16eeLL
.	16ff
.	16gg
.	16ffJJ
=35	=35
4c	16ffLL
.	16ee
.	16dd#
.	16eeJJ
4G	16dd#LL
.	16ee
.	16ff
.	16eeJJ
=36	=36
4f	16eeLL
.	16dd
.	16cc#
.	16ddJJ
4G	16cc#LL
.	16dd
.	16ee
.	16ddJJ
=37	=37
2G 2e	16aaLL
.	16gg
.	16ff#
.	16ggJJ
.	16eeeLL
.	16ccc
.	16aa
.	16ggJJ
=38	=38
2G 2d	16ggLL
.	16ff
.	16ee
.	16ffJJ
.	16dddLL
.	16bb
.	16gg
.	16ffJJ
=39	=39
4G 4c	16ffLL
.	16ee
.	16dd#
.	16eeJJ
8.r	16cccLL
.	16gg
.	16ff
16c	16eeJJ
=40	=40
*^	*
*	*	*
(8.eL	2G	(8.ggL
16cJk	.	16eeJk
4B)	.	4dd)
*v	*v	*
*	*
=41	=41
4C	16ddLL
.	16cc
.	16b
.	16ccJJ
4c	16bLL
.	16cc
.	16b
.	16ccJJ
=42	=42
4e	16aaLL
.	16gg
.	16ff#
.	16ggJJ
4c	16ff#LL
.	16gg
.	16ff#
.	16ggJJ
=43	=43
4f	16gg#LL
.	16aa
.	16ccc
.	16bbJJ
4c	16dddLL
.	16ccc
.	16bb
.	16aaJJ
=44	=44
4e	16aaLL
.	16gg
.	16eee
.	16dddJJ
8.r	16cccLL
.	16bb
.	16aa
16c#	[16ggJJ
=45	=45
4d	16ggLL]
.	16ff
.	16ddd
.	16cccJJ
8.r	16bbLL
.	16aa
.	16gg
16B	[16ffJJ
=46	=46
4c	16ffLL]
.	16ee
.	16ccc
.	16bbJJ
8.r	16aaLL
.	16gg
.	16ff
16A	16eeJJ
=47	=47
4F	8ddL
.	8aaJ
4G	8ggL
.	8bJ
=48	=48
4c	4cc
4C	4r
*>Variation 2	*>Variation 2
=49:|!	=49:|!
16CLL	4cc
16c	.
16B	.
16cJJ	.
16dLL	4cc
16c	.
16B	.
16cJJ	.
=50	=50
16ELL	4cc 4gg
16c	.
16B	.
16cJJ	.
16dLL	[4cc [4gg
16c	.
16B	.
16cJJ	.
=51	=51
16FLL	4cc_ 4gg] [4aa
16c	.
16B	.
16cJJ	.
16dLL	4cc_ [4ff 4aa]
16c	.
16B	.
16cJJ	.
=52	=52
16CLL	4cc_ 4ff] [4gg
16c	.
16B	.
16cJJ	.
16dLL	4cc_ [4ee 4gg]
16c	.
16B	.
16cJJ	.
=53	=53
16AALL	4cc] 4ee] 4ff
16A	.
16G#	.
16AJJ	.
16BBLL	4g 4dd 4ff
16B	.
16A#	.
16BJJ	.
=54	=54
16CLL	4g 4dd 4ee
16c	.
16B	.
16cJJ	.
16AALL	4a 4cc 4ee
16A	.
16G#	.
16AJJ	.
=55	=55
16FFLL	4a 4cc 4dd
16F	.
16E	.
16FJJ	.
*	*
*	*^
16GGLL	8.gL	4b 4dd
16G	.	.
16F#	.	.
16GJJ	16fJk	.
*	*	*
*	*v	*v
=56	=56
4CC	4e 4g 4cc
4C	4r
=57!|:	=57!|:
16GLL	4cc 4gg
16e	.
16d#	.
16eJJ	.
16fLL	4cc 4gg
16e	.
16d#	.
16eJJ	.
=58	=58
16GLL	4cc 4ff
16d	.
16c#	.
16dJJ	.
16eLL	4b 4ff
16d	.
16c#	.
16dJJ	.
=59	=59
16GLL	8.ccL 8.ee
16g	.
16f#	.
16gJJ	16ddJk
16aLL	8.ccL 8.ee
16g	.
16f#	.
16aJJ	16ffJk
=60	=60
*	*
*	*^
16GLL	(4ee	2b
16f	.	.
16e	.	.
16fJJ	.	.
16gLL	4dd)	.
16f	.	.
16e	.	.
16fJJ	.	.
*	*	*
*	*v	*v
=61	=61
16GLL	4cc 4gg
16e	.
16d#	.
16eJJ	.
16fLL	4cc 4gg
16e	.
16d#	.
16eJJ	.
=62	=62
16GLL	4cc 4ff
16d	.
16c#	.
16dJJ	.
16eLL	4b 4ff
16d	.
16c#	.
16dJJ	.
=63	=63
16GLL	8.gL 8.ee
16c	.
16B	.
16cJJ	16ddJk
16dLL	8.gL 8.ee
16c	.
16B	.
16cJJ	16ffJk
=64	=64
*	*
*	*^
16GLL	(4ee	2g
16B	.	.
16A#	.	.
16BJJ	.	.
16cLL	4dd)	.
16B	.	.
16A#	.	.
16BJJ	.	.
*	*	*
*	*v	*v
=65	=65
16CLL	4e 4g 4cc
16c	.
16B	.
16cJJ	.
16dLL	8.ccL
16c	.
16B	.
16cJJ	32bLL
.	32ccJJJ
=66	=66
16ELL	4gg
16c	.
16B	.
16cJJ	.
16dLL	[4cc [4gg
16c	.
16B	.
16cJJ	.
=67	=67
*	*
*	*^
16FLL	4cc] 4gg] 4aa	4r
16c	.	.
16B	.	.
16cJJ	.	.
*	*	*
*	*v	*v
16dLL	[4cc [4ff 4aa
16c	.
16B	.
16cJJ	.
=68	=68
16CLL	4cc] 4ff] 4gg
16c	.
16B	.
16cJJ	.
16C#LL	4b- [4ee 4gg
16c#	.
16B#	.
16c#JJ	.
=69	=69
16DLL	4a 4ee] 4ff#
16d	.
16c#	.
16dJJ	.
16BBLL	4a- [4dd 4ff
16B	.
16A#	.
16BJJ	.
=70	=70
16CLL	4g 4dd] 4ee
16c	.
16B	.
16cJJ	.
16AALL	4a 4cc 4ee
16A	.
16G#	.
16AJJ	.
=71	=71
16FFLL	4a 4cc 4dd
16F	.
16E	.
16FJJ	.
*	*
*	*^
16GGLL	4b 4dd	8.gL
16G	.	.
16F#	.	.
16GJJ	.	16fJk
*	*	*
*	*v	*v
=72	=72
4CC	4e 4g 4cc
4C	4r
=73:|!|:	=73:|!|:
4CC	(12cL
.	12e
.	12gJ
4C	12ccL
.	12ee
.	12ggJ
=74	=74
*^	*
*	*	*
2c	4E	12cccL
.	.	12gg
.	.	12ffJ
.	4C	12eeL
.	.	12dd
.	.	12ccJ)
=75	=75	=75
2c	4F	(12aaL
.	.	12gg#
.	.	12aaJ
.	4C	12cccL
.	.	12bb
.	.	12aaJ)
=76	=76	=76
2c	4E	(12aaL
.	.	12ff#)
.	.	12gg'J
.	4C	12gg'L
.	.	12ccc'
.	.	12eee'J
*v	*v	*
*	*
=77	=77
4A 4c	(12eeeL
.	12ff')
.	12ff'J
4B 4d	12ff'L
.	12bb'
.	12ddd'J
=78	=78
4c 4e	(12dddL
.	12ee')
.	12ee'J
4A 4c	12ee'L
.	12aa'
.	12ccc'J
=79	=79
*^	*
*	*	*
4F 4A	4r	(12cccL
.	.	12dd)
.	.	12aa'J
4G 4f	8.BL	(12aaL
.	.	12gg)
.	.	12b'J
.	16dJk	.
*v	*v	*
*	*
=80	=80
12cL 12e	4cc
12G	.
12EJ	.
4C	4r
*>Variation 3	*>Variation 3
=81:|!|:	=81:|!|:
*^	*
*	*	*
4e	2G	(12ggL
.	.	12ff#)
.	.	12gg'J
4c	.	(12eeeL
.	.	12ccc)
.	.	12gg'J
=82	=82	=82
4d	2G	(12ggL
.	.	12ee)
.	.	12ff'J
4B	.	(12dddL
.	.	12bb)
.	.	12ff'J
=83	=83	=83
4c	2G	(12ffL
.	.	12dd#)
.	.	12ee'J
4e	.	(12cccL
.	.	12gg)
.	.	12ee'J
*v	*v	*
*	*
=84	=84
2G 2f	(12eeL
.	12cc#)
.	12dd'J
.	(12ffL
.	12dd)
.	12b'J
=85	=85
*^	*
*	*	*
4e	2G	(12ggL
.	.	12ff#)
.	.	12gg'J
4c#	.	(12eeeL
.	.	12aa)
.	.	12gg'J
=86	=86	=86
4d	2G	(12ggL
.	.	12ee)
.	.	12ff'J
4B	.	(12dddL
.	.	12gg)
.	.	12ff'J
*v	*v	*
*	*
=87	=87
4G 4c	(12ffL
.	12dd#)
.	12ee'J
4F# 4A 4c	(12cccL
.	12aa)
.	12ee'J
=88	=88
*^	*
*	*	*
(8.eL	2G	(8.ggL
16cJk	.	16eeJk
4B)	.	4dd)
*v	*v	*
*	*
=89	=89
4CC	(12cL
.	12e
.	12gJ
4C	12ccL
.	12ee
.	12ggJ
=90	=90
*^	*
*	*	*
2c	4E	12cccL
.	.	12gg
.	.	12ffJ
.	4C	12eeL
.	.	12dd
.	.	12ccJ)
*v	*v	*
*	*
=91	=91
*^	*
*	*	*
2c	4F	(12aaL
.	.	12gg#
.	.	12aaJ
.	4C	12cccL
.	.	12bb
.	.	12aaJ)
=92	=92	=92
2c	4E	(12aaL
.	.	12ff#)
.	.	12gg'J
.	4C	12gg'L
.	.	12ccc'
.	.	12eee'J
*v	*v	*
*	*
=93	=93
4A 4c	(12eeeL
.	12ff')
.	12ff'J
4B 4d	12ff'L
.	12bb'
.	12ddd'J
=94	=94
4c 4e	(12dddL
.	12ee')
.	12ee'J
4A 4c	12ee'L
.	12aa'
.	12ccc'J
=95	=95
*^	*
*	*	*
4F 4A	4r	(12cccL
.	.	12dd)
.	.	12aa'J
4G 4f	8.BL	(12aaL
.	.	12gg)
.	.	12b'J
.	16dJk	.
*v	*v	*
*	*
=96	=96
12cL 12e	4cc
12G	.
12EJ	.
4C	4r
=97:|!	=97:|!
12CCL	4e 4g 4cc
12EE	.
12GGJ	.
12CL	4cc
12E	.
12CJ	.
=98	=98
12CCL	4cc 4ee 4gg
12EE	.
12GGJ	.
12CL	4gg
12E	.
12CJ	.
=99	=99
*	*
*	*^
12CCL	(4gg	2cc 2aa
12FF	.	.
12AAJ	.	.
12CL	4ff)	.
12F	.	.
12CJ	.	.
=100	=100	=100
12CCL	(4ff	2cc 2gg
12EE	.	.
12GGJ	.	.
12CL	4ee)	.
12E	.	.
12CJ	.	.
*	*	*
*	*v	*v
=101	=101
12AAA'L	4cc 4ee 4ff
(12GG#	.
12AAJ)	.
12BBB'L	4g 4dd 4ff
(12AA#	.
12BBJ)	.
=102	=102
12CC'L	4g 4dd 4ee
(12BB	.
12CJ)	.
12AAA'L	4a 4cc 4ee
(12GG#	.
12AAJ)	.
=103	=103
12FFF'L	4a 4cc 4dd
(12EE	.
12FFJ)	.
12GGG'L	4f 4b 4dd
(12FF#	.
12GGJ)	.
=104	=104
12CCL	4e 4g 4cc
12EE	.
12GGJ	.
4C	4r
*>Variation 4	*>Variation 4
=105:|!|:	=105:|!|:
*	*
*	*^
12GGL	4gg	4ee
12C	.	.
12EJ	.	.
12GL	4gg	4ee
12c	.	.
12eJ	.	.
=106	=106	=106
12gL	2ff	(4ee
12f#	.	.
12gJ	.	.
12GL	.	4dd)
12A	.	.
12BJ	.	.
=107	=107	=107
12cL	[4ee	(4dd
12B	.	.
12cJ	.	.
12CL	8.eeL]	4cc)
12E	.	.
12FJ	.	.
.	16aaJk	.
=108	=108	=108
12GL	(4ee	(4cc
12F#	.	.
12GJ	.	.
4GG	12ddL)	4b)
.	12ee	.
.	12ffJ	.
*	*	*
*	*v	*v
=109	=109
*	*
*	*^
12GGL	4gg	4ee
12C	.	.
12EJ	.	.
12GL	4gg	4ee
12c	.	.
12eJ	.	.
=110	=110	=110
12gL	2ff	(4ee
12f#	.	.
12gJ	.	.
12GL	.	4dd)
12A	.	.
12BJ	.	.
=111	=111	=111
12cL	[4ee	(4dd
12B	.	.
12cJ	.	.
12CL	8.eeL]	4cc)
12E	.	.
12FJ	.	.
.	16aaJk	.
=112	=112	=112
12GL	(4ee	(4cc
12F#	.	.
12GJ	.	.
4GG	12ddL)	4b)
.	12ff	.
.	12ddJ	.
*	*	*
*	*v	*v
=113	=113
12CCL	4e 4g 4cc
12EE	.
12GGJ	.
12CL	4cc
12E	.
12CJ	.
=114	=114
12CCL	4cc 4ee 4gg
12EE	.
12GGJ	.
12CL	4gg
12E	.
12CJ	.
=115	=115
*	*
*	*^
12CCL	(4gg	2cc 2aa
12FF	.	.
12AAJ	.	.
12CL	4ff)	.
12F	.	.
12CJ	.	.
=116	=116	=116
12CCL	(4ff	2cc 2gg
12EE	.	.
12GGJ	.	.
12CL	4ee)	.
12E	.	.
12CJ	.	.
*	*	*
*	*v	*v
=117	=117
12AAA'L	4cc 4ee 4ff
(12GG#	.
12AAJ)	.
12BBB'L	4g 4dd 4ff
(12AA#	.
12BBJ)	.
=118	=118
12CC'L	4g 4dd 4ee
(12BB	.
12CJ)	.
12AAA'L	4a 4cc 4ee
(12GG#	.
12AAJ)	.
=119	=119
12FFF'L	4a 4cc 4dd
(12EE	.
12FFJ)	.
12GGG'L	4f 4b 4dd
(12FF#	.
12GGJ)	.
=120	=120
12CCL	4e 4g 4cc
12EE	.
12GGJ	.
4C	4r
=121:|!|:	=121:|!|:
8r	4.cc
8c	.
4e	.
.	8cc
=122	=122
8r	4.gg
8e	.
4c	.
.	8gg
=123	=123
8r	4.aa
8f	.
4c	.
.	8aa
=124	=124
8r	4.gg
8e	.
4c	.
.	8ee 8gg
=125	=125
8d	8r
8r	8ee 8ff
8B	8r
8r	8dd 8ff
=126	=126
8c	8r
8r	8dd 8ee
8A	8r
8r	8cc 8ee
=127	=127
8F	8r
8r	8cc 8dd
8G	8r
8r	8b 8dd
=128	=128
8r	4cc
8c	.
4C	4r
*>Variation 5	*>Variation 5
=129:|!|:	=129:|!|:
8r	4.gg
(8e	.
4G)	.
.	(8gg
=130	=130
8r	4.ff#)
(8d	.
4G)	.
.	(8ff
=131	=131
8r	4.ee)
(8c	.
4G)	.
.	(8ee-
=132	=132
8r	4dd)
(8B	.
4G)	8r
.	8g
=133	=133
8r	4.gg
(8e	.
4G)	.
.	(16ggLL
.	16ff#JJ
=134	=134
8r	4.ff)
(8d	.
4G)	.
.	(16ffLL
.	16eeJJ
=135	=135
8r	4.ee-)
(8c	.
4G)	.
.	(16ff#LL
.	16ggJJ
=136	=136
8r	4.dd)
(8B	.
4G)	.
.	(16ffLL
.	16ddJJ
=137	=137
8r	4.cc)
(16CLL	.
16EJJ	.
4G)	.
.	(16ccLL
.	16eeJJ
=138	=138
8r	4.gg)
(16cLL	.
16eJJ	.
4g)	.
.	(16ggLL
.	16eeJJ
=139	=139
8r	4.aa)
(16fLL	.
16aJJ	.
4c)	.
.	(16aaLL
.	16cccJJ
=140	=140
8r	4.gg)
(16eLL	.
16gJJ	.
4c)	.
.	(16eeLL
.	16ggJJ)
=141	=141
8d	8r
8r	(16ggLL
.	16ff#JJ)
8B	8r
8r	(16ddLL
.	16ffJJ)
=142	=142
8c	8r
8r	(16ffLL
.	16eeJJ)
8E	8r
8r	(16ggLL
.	16eeJJ)
=143	=143
8F	8r
8r	(16cc#LL
.	16ddJJ)
8G	8r
8r	(16ffLL
.	16ddJJ)
=144	=144
8c	8r
8r	(16bLL
.	16ccJJ)
8C	4r
8r	.
=145:|!|:	=145:|!
16CLL	8e 8g 8cc
16BB	.
16C	8r
16BBJJ	.
16CLL	8e 8g 8cc
16BB	.
16C	8r
16BBJJ	.
=146	=146
16CLL	8cc 8ee 8gg
16BB	.
16C	8r
16BBJJ	.
16CLL	8cc 8ee 8gg
16D	.
16E	8r
16CJJ	.
=147	=147
16FLL	8cc 8gg 8aa
16E	.
16F	8r
16EJJ	.
16FLL	8cc 8ff 8aa
16G	.
16A	8r
16BJJ	.
=148	=148
16cLL	8cc 8ff 8gg
16B	.
16c	8r
16BJJ	.
16cLL	8cc 8ee 8gg
16d	.
16e	8r
16cJJ	.
=149	=149
16dLL	8a 8ee 8ff
16c#	.
16d	8r
16cJJ	.
16BLL	8g 8dd 8ff
16A	.
16B	8r
16GJJ	.
=150	=150
16cLL	8g 8dd 8ee
16B	.
16c	8r
16BJJ	.
16ALL	8a 8cc 8ee
16G#	.
16A	8r
16GJJ	.
=151	=151
16FLL	8f 8a 8dd
16E	.
16F	8r
16DJJ	.
16GLL	8d 8f 8b
16F#	.
16G	8r
16GGJJ	.
=152	=152
16CLL	4e 4g 4cc
16GG	.
16EE	.
16GGJJ	.
4CC	4r
*>Variation 6	*>Variation 6
=153:|!	=153:|!|:
4GG 4E	16GLL
.	16F#
.	16G
.	16F#JJ
4GG 4E	16GLL
.	16F#
.	16G
.	16F#JJ
=154	=154
4GG 4D 4F	16GLL
.	16F#
.	16G
.	16F#JJ
4GG 4D 4F	16GLL
.	16A
.	16B
.	16GJJ
=155	=155
4GG 4C 4E	16cLL
.	16B
.	16c
.	16dJJ
4GG 4C 4E	16eLL
.	16d
.	16e
.	16f#JJ
=156	=156
4GG 4BB 4D	16gLL
.	16f#
.	16g
.	16f#JJ
4GG 4BB 4D	16gLL
.	16f#
.	16g
.	16f#JJ
=157	=157
4GG 4E 4G	16gLL
.	16f#
.	16g
.	16f#JJ
4GG 4E 4G	16gLL
.	16f#
.	16g
.	16f#JJ
=158	=158
4GG 4D 4F	16gLL
.	16f#
.	16g
.	16f#JJ
4GG 4D 4F	16gLL
.	16a
.	16b
.	16gJJ
=159	=159
4GG 4C 4E	16ccLL
.	16b
.	16cc
.	16ddJJ
4GG 4C 4E	16eeLL
.	16dd
.	16ee
.	16ff#JJ
=160	=160
4GG 4BB 4D	16ggLL
.	16aa
.	16ff
.	16ggJJ
4r	16eeLL
.	16ff
.	16dd
.	16eeJJ
=161	=161
16CLL	8e 8g 8cc
16BB	.
16C	8r
16BBJJ	.
16CLL	8e 8g 8cc
16BB	.
16C	8r
16BBJJ	.
=162	=162
16CLL	8cc 8ee 8gg
16BB	.
16C	8r
16BBJJ	.
16CLL	8cc 8ee 8gg
16D	.
16E	8r
16CJJ	.
=163	=163
16FLL	8cc 8gg 8aa
16E	.
16F	8r
16EJJ	.
16FLL	8cc 8ff 8aa
16G	.
16A	8r
16BJJ	.
=164	=164
16cLL	8cc 8ff 8gg
16B	.
16c	8r
16BJJ	.
16cLL	8cc 8ee 8gg
16d	.
16e	8r
16cJJ	.
=165	=165
16dLL	8a 8ee 8ff
16c#	.
16d	8r
16cJJ	.
16BLL	8g 8dd 8ff
16A	.
16B	8r
16GJJ	.
=166	=166
16cLL	8g 8dd 8ee
16B	.
16c	8r
16BJJ	.
16ALL	8a 8cc 8ee
16G#	.
16A	8r
16GJJ	.
=167	=167
16FLL	8f 8a 8dd
16E	.
16F	8r
16DJJ	.
16GLL	8d 8f 8b
16F#	.
16G	8r
16GGJJ	.
=168	=168
16CLL	4e 4g 4cc
16GG	.
16EE	.
16GGJJ	.
4CC	4r
=169:|!|:	=169:|!
2CC 2C	(8cL
.	16dL
.	16eJJ
.	16fLL
.	16g
.	16a
.	16bJJ
=170	=170
(4E	16ccLL
.	16dd
.	16ee
.	16ffJJ
4C)	16ggLL
.	16aa
.	16bb
.	16cccJJ
=171	=171
(4F	16bbLL
.	16aa
.	16gg#
.	16aaJJ
4C)	16dddLL
.	16ccc
.	16bb
.	16aaJJ)
=172	=172
4E	(16aaLL
.	16gg
.	16ff#
.	16ggJJ)
4C 4c	16r
.	(16ggLL
.	16eee
.	16ggJJ)
=173	=173
4AA 4A	16r
.	(16ffLL
.	16eee
.	16ffJJ)
4BB 4B	16r
.	(16ffLL
.	16ddd
.	16ffJJ)
=174	=174
4GG# 4G#	16r
.	(16eeLL
.	16ddd
.	16eeJJ)
4AA 4A	16r
.	(16eeLL
.	16ccc
.	16eeJJ)
=175	=175
4FF 4F	16r
.	(16ddLL
.	16ccc
.	16ddJJ)
4GG 4G	16r
.	(16ddLL
.	16bb
.	16ddJJ)
=176	=176
4CC 4C	4ee 4gg 4ccc
4r	4r
*>Variation 7	*>Variation 7
=177:|!|:	=177:|!|:
2G 2e	(16ggLL
.	16ccc
.	16eee
.	16dddJJ
.	16cccLL
.	16bb
.	16aa
.	16ggJJ
=178	=178
2G 2d	16ffLL
.	16ee
.	16dd
.	16ccJJ
.	16bLL
.	16a
.	16g
.	16fJJ
=179	=179
2G 2c	8eL)
.	(8ee'J
.	8ff'L
.	8ff#'J)
=180	=180
2G 2B	(8.ggL
.	16eeJk
.	8dd)
.	8r
=181	=181
2G 2e	(16ggLL
.	16ccc
.	16eee
.	16dddJJ
.	16cccLL
.	16bb
.	16aa
.	16ggJJ
=182	=182
2G 2d	16ffLL
.	16ee
.	16dd
.	16ccJJ
.	16bLL
.	16a
.	16g
.	16fJJ
=183	=183
2G 2c	8eL)
.	(8ee'J
.	8ff'L
.	8ff#'J)
=184	=184
2G 2B	(8.ggL
.	16eeJk
.	8dd)
.	8r
=185	=185
2CC 2C	(8cL
.	16dL
.	16eJJ
.	16fLL
.	16g
.	16a
.	16bJJ
=186	=186
(4E	16ccLL
.	16dd
.	16ee
.	16ffJJ
4C)	16ggLL
.	16aa
.	16bb
.	16cccJJ
=187	=187
(4F	16bbLL
.	16aa
.	16gg#
.	16aaJJ
4C)	16dddLL
.	16ccc
.	16bb
.	16aaJJ)
=188	=188
4E	(16aaLL
.	16gg
.	16ff#
.	16ggJJ)
4C 4c	16r
.	(16ggLL
.	16eee
.	16ggJJ)
=189	=189
4AA 4A	16r
.	(16ffLL
.	16eee
.	16ffJJ)
4BB 4B	16r
.	(16ffLL
.	16ddd
.	16ffJJ)
=190	=190
4GG# 4G#	16r
.	(16eeLL
.	16ddd
.	16eeJJ)
4AA 4A	16r
.	(16eeLL
.	16ccc
.	16eeJJ)
=191	=191
4FF 4F	16r
.	(16ddLL
.	16ccc
.	16ddJJ)
4GG 4G	16r
.	(16ddLL
.	16bb
.	16ddJJ)
=192	=192
4CC 4C	4ee 4gg 4ccc
4r	4r
=193:|!|:	=193:|!
*k[b-e-a-]	*k[b-e-a-]
2r	8cc'L
.	8dd'J
.	8ee-'L
.	8ff'J
=194	=194
2r	4gg
.	[4gg
*clefG2	*
=195	=195
*	*
*	*^
8f'L	2aa-	4gg]
8g'J	.	.
8a-'L	.	[4ff
8b-'J	.	.
=196	=196	=196
4cc	2gg	4ff]
4cc	.	[4ee-
*clefF4	*	*
=197	=197	=197
8G'L	2ff	[4g 4ee-]
8A'J	.	.
8B'L	.	4g_ [4dd
8G'J	.	.
=198	=198	=198
8c'L	2ee-	4g] 4dd]
8G'J	.	.
8A-'L	.	[4cc
8E-'J	.	.
=199	=199	=199
8F'L	2dd	4cc]
8D'J	.	.
8G'L	.	4b
8GG'J	.	.
=200	=200	=200
4C	4cc	4cc
4CC	4r	4r
*	*	*
*>Variation 8	*	*
*	*v	*v
*	*>Variation 8
=201:|!	=201:|!
*	*
*	*^
[2GG [2G	8r	2g
.	(8gg	.
.	8aa-L	.
.	8ggJ)	.
=202	=202	=202
2GG] 2G]	(4ff#	(4a
.	4ff)	4b)
=203	=203	=203
[2G	4ee	8ccL
.	.	(8gJ
.	[4ee-	8a-L
.	.	8gJ)
=204	=204	=204
*^	*	*
*	*	*	*
2G]	4A	4ee-]	(4f#
.	4B	[4dd	4f)
*v	*v	*	*
*	*	*
=205	=205	=205
8cL	4dd]	4e
8GGJ 8G	.	.
8AA-L 8A-	[4cc	[4e-
8GGJ 8G	.	.
=206	=206	=206
4FF# 4F#	4a 4cc]	4e-]
4FF 4F	4b	4a-
=207	=207	=207
4EE 4E	8cc'L	2g
.	8dd'J	.
4EE- 4E-	8ee-'L	.
.	8ff'J	.
=208	=208	=208
4DD 4D	(8ggL	2g
.	8ffJ)	.
4GGG 4GG	8ee-'L	.
.	8dd'J	.
*	*	*
*	*v	*v
=209	=209
4CC 4C	8cc'L
.	8dd'J
4r	8ee-'L
.	8ff'J
=210	=210
2r	(8ff#L
.	16ggJk)
.	16r
.	(8ff#L
.	16ggJk)
.	16r
*clefG2	*
=211	=211
*	*
*	*^
8f'L	2aa-	4gg
8g'J	.	.
8a-'L	.	[4ff
8b-'J	.	.
=212	=212	=212
(8bL	2gg	4ff]
16ccJk)	.	.
16r	.	.
(8bL	.	[4ee-
16ccJk)	.	.
16r	.	.
*clefF4	*	*
=213	=213	=213
8G'L	2ff	[4g 4ee-]
8A'J	.	.
8B'L	.	4g_ [4dd
8G'J	.	.
=214	=214	=214
8c'L	2ee-	4g] 4dd]
8G'J	.	.
8A-'L	.	[4cc
8E-'J	.	.
=215	=215	=215
8F'L	2dd	4cc]
8D'J	.	.
8G'L	.	4b
8GG'J	.	.
=216	=216	=216
4C	4cc	4cc
4CC	4r	4r
*	*	*
*	*v	*v
=217||	=217||
*k[]	*k[]
2r	4cc'
.	4cc'
=218	=218
2r	4gg'
.	[4gg
*clefG2	*
=219	=219
4f'	4gg] [4aa
4f'	[4ff 4aa]
=220	=220
4cc'	4ff] [4gg
4cc'	[4ee 4gg]
*clefF4	*
=221	=221
4G'	4ee] [4ff
4G'	[4dd 4ff]
=222	=222
4c'	4dd] [4ee
4c'	8ccL 8ee]
*	*
*	*^
.	8ccJ	8r
=223	=223	=223
4GGG 4GG	(8ccL	2d 2f
.	8bJ	.
4GGG 4GG	8aL	.
.	8bJ)	.
=224	=224	=224
4CC 4C	4cc	4e
4r	4r	4r
*	*	*
*	*v	*v
=225:|!|:	=225:|!|:
2r	4gg'
.	4gg'
=226	=226
2r	4ff'
.	4ff'
*clefG2	*
=227	=227
4g' 4cc'	4ee
4g' 4cc'	(8.eeL
.	16ffJk)
=228	=228
4f' 4b'	(4ee
4f' 4b'	4dd)
*clefF4	*
=229	=229
*	*
*	*^
4G' 4e'	4cc	2g
4G' 4e'	[4cc	.
=230	=230	=230
4F' 4d'	8ccL]	2g
.	8bJ	.
4F' 4d'	8aL	.
.	8bJ	.
=231	=231	=231
4GG' 4E'	8ccL	2g
.	8cc'J	.
4GG' 4E'	8dd'L	.
.	8ee'J	.
=232	=232	=232
4FF' 4D'	8ff'L	4g
.	8gg'J	.
4FF' 4D'	8aa'L	4r
.	8bb'J	.
*	*	*
*	*v	*v
=233	=233
4EE' 4C'	4ccc'
4r	4ccc'
=234	=234
2r	4gg'
.	4gg'
=235	=235
*	*
*	*^
2r	4aa'	4ff'
.	4aa'	4ff'
=236	=236	=236
2r	4gg'	4cc
.	(8.eeL	4cc
.	16ggJk)	.
=237	=237	=237
4g'	4ff'	4b
4g'	(8.ddL	4b
.	16ffJk)	.
=238	=238	=238
4c'	4ee'	4cc
4c'	4cc'	4e 4g
=239	=239	=239
4GGG 4GG	(8ccL	2d 2f
.	8bJ	.
4GGG 4GG	8aL	.
.	8bJ)	.
=240	=240	=240
4CC 4C	4cc	4e
4r	4r	4r
*	*	*
*>Variation 9	*	*
*	*v	*v
*	*>Variation 9
=241:|!|:	=241:|!|:
*	*
*	*^
4CC 4C	4r	16r
.	.	(16eLL
.	.	16cc
.	.	16eJJ)
4r	4cc	16r
.	.	(16eLL
.	.	16g
.	.	16eJJ)
=242	=242	=242
2r	4gg	16r
.	.	(16eLL
.	.	16cc
.	.	16eJJ)
.	4gg	16r
.	.	(16eLL
.	.	16cc
.	.	16eJJ)
=243	=243	=243
2r	4aa	16r
.	.	(16fLL
.	.	16cc
.	.	16fJJ)
.	4aa	16r
.	.	(16fLL
.	.	16cc
.	.	16fJJ)
=244	=244	=244
4r	4gg	16r
.	.	(16eLL
.	.	16cc
.	.	16eJJ)
4C# 4c#	16r	16r
*	*	*
*	*v	*v
.	(16b-LL
.	16ee 16gg
.	16b-JJ)
=245	=245
4D 4d	16r
.	(16aLL
.	16dd 16ff#
.	16aJJ)
4BB 4B	16r
.	(16a-LL
.	16dd 16ff
.	16a-JJ)
=246	=246
4C 4c	16r
.	(16gLL
.	16cc 16ee
.	16gJJ)
4FF# 4F#	16r
.	(16aLL
.	16cc 16ee-
.	16aJJ)
=247	=247
4GG 4G	16r
.	(16gLL
.	16cc 16dd
.	16gJJ)
4GG	16r
.	(16fLL
.	16b 16dd
.	16fJJ)
=248	=248
4C	4e 4cc
4CC	4r
=249:|!|:	=249:|!|:
*	*
*	*^
4GGG 4GG	4r	16r
.	.	(16eLL
.	.	16cc
.	.	16eJJ)
4r	4gg	16r
.	.	(16eLL
.	.	16cc
.	.	16eJJ)
=250	=250	=250
2r	4ff#	16r
.	.	(16dLL
.	.	16cc
.	.	16dJJ)
.	4ff	16r
.	.	(16dLL
.	.	16b
.	.	16dJJ)
*	*	*
*	*v	*v
=251	=251
*	*
*	*^
4r	4ee	16r
.	.	(16cLL
.	.	16cc
.	.	16cJJ)
4GG 4G	16r	16r
*	*	*
*	*v	*v
.	(16gLL
.	16cc 16ee-
.	16gJJ)
=252	=252
4FF# 4F#	16r
.	(16aLL
.	16cc 16dd
.	16aJJ)
4FF 4F	16r
.	(16a-LL
.	16b 16dd
.	16a-JJ)
=253	=253
4EE 4E	16r
.	(16gLL
.	16cc 16ee
.	16gJJ)
4EE- 4E-	16r
.	(16gLL
.	16cc# 16gg
.	16gJJ)
=254	=254
4DD 4D	16r
.	(16aLL
.	16dd 16ff#
.	16aJJ)
4BBB 4BB	16r
.	(16a-LL
.	16dd 16ff
.	16a-JJ)
=255	=255
4CC 4C	16r
.	(16gLL
.	16cc 16ee
.	16gJJ)
4FFF# 4FF#	16r
.	(16aLL
.	16cc 16ee-
.	16aJJ)
=256	=256
4GGG 4GG	(16bLL 16dd
.	16cc
.	16b
.	16aJJ
4r	16gLL
.	16f
.	16e
.	16dJJ)
=257	=257
*	*
*	*^
4CC 4C	4r	16r
.	.	(16eLL
.	.	16cc
.	.	16eJJ)
4r	4cc	16r
.	.	(16eLL
.	.	16g
.	.	16eJJ)
=258	=258	=258
2r	4gg	16r
.	.	(16eLL
.	.	16cc
.	.	16eJJ)
.	4gg	16r
.	.	(16eLL
.	.	16cc
.	.	16eJJ)
=259	=259	=259
2r	4aa	16r
.	.	(16fLL
.	.	16cc
.	.	16fJJ)
.	4aa	16r
.	.	(16fLL
.	.	16cc
.	.	16fJJ)
*	*	*
*	*v	*v
=260	=260
*	*
*	*^
4r	4gg	16r
.	.	(16eLL
.	.	16cc
.	.	16eJJ)
4C# 4c#	16r	16r
.	(16b-LL	16r
.	16ee 16gg	8r
.	16b-JJ)	.
*	*	*
*	*v	*v
=261	=261
4D 4d	16r
.	(16aLL
.	16dd 16ff#
.	16aJJ)
4BB 4B	16r
.	(16a-LL
.	16dd 16ff
.	16a-JJ)
=262	=262
4C 4c	16r
.	(16gLL
.	16cc 16ee
.	16gJJ)
4FF# 4F#	16r
.	(16aLL
.	16cc 16ee-
.	16aJJ)
=263	=263
4GG 4G	16r
.	(16gLL
.	16cc 16dd
.	16gJJ)
4GG	16r
.	(16fLL
.	16b 16dd
.	16fJJ)
=264	=264
4C	4e 4cc
4CC	4r
*>Variation 10	*>Variation 10
=265:|!|:	=265:|!
2r	(8.ccL
.	16gJk)
.	(8.eeL
.	16ccJk)
=266	=266
(8.cL	8gg
.	4gg
16GJk)	.
(8.eL	.
.	8gg
16cJk)	.
=267	=267
(8.FL	8cc 8gg 8aa
.	4cc 4ff 4aa
16CJk)	.
(8.AL	.
.	8cc 8ff 8aa
16FJk)	.
=268	=268
(8.CL	8cc 8ff 8gg
.	4cc 4ee 4gg
16GGJk)	.
(8.EL	.
.	8cc 8ee 8gg
16CJk)	.
=269	=269
8A 8c 8f	(16ggLL
.	16ffJ)
8r	8ffJ
8B 8d 8g	16r
.	(32eeeLLL
.	32dddJJ)
8r	(32cccLL
.	32bb)
.	(32aa
.	32ggJJJ)
=270	=270
8c 8e 8g	(16.ffLL
.	32dd#Jk
8r	8eeJ)
8E 8G 8c	16r
.	(32aaLLL
.	32ggJJ)
8r	(32ffLL
.	32ee)
.	(32dd
.	32ccJJJ)
=271	=271
*^	*
*	*	*
4d	4F	(16.bLL
.	.	32aJk)
.	.	(32ggLL
.	.	32ff
.	.	32ee
.	.	32ddJJJ
8gL	4G	8ccL)
8fJ	.	8b'J
*v	*v	*
*	*
=272	=272
8cL	(4f 4g 4b 4dd
8GJ	.
8C	8e) 8g 8cc
8r	8r
=273:|!|:	=273:|!|:
16GLL	(8.ggL
16c 16e	.
16c 16e	.
16cJJ 16e	32aaLL
.	32bbJJJ
16GLL	16cccLL)
16c 16e	16bb'
16c 16e	16aa'
16cJJ 16e	16gg'JJ
=274	=274
16GLL	(16ggLL
16d 16f	32ffJJk)
.	32r
16d 16f	(16eeLL
16dJJ 16f	32ddJJk)
.	32r
16GLL	(8ccL
16d 16f	.
16d 16f	16bJk)
16dJJ 16f	16r
=275	=275
8.eL 8.g	(8.ccL
16BJk 16g	16ddJk)
8.cL 8.g	(8.eeL
16FJk 16d	16ffJk)
=276	=276
(4G 4c	(8.eeL
.	32ffLL
.	32eeJJJ
8G) 8B	16ddLL)
.	(16ee'
8r	16ff'
.	16ff#'JJ)
=277	=277
16GLL	(8.ggL
16e 16g	.
16e 16g	.
16eJJ 16g	32aaLL
.	32bbJJJ
16GLL	32cccLLL
.	32ddd
16e 16g	32eee
.	32dddJJ
16e 16g	32cccLL
.	32bb
16eJJ 16g	32aa
.	32ggJJJ)
=278	=278
16GLL	(32ggLLL
.	32ff)
16d 16f	(32fff
.	32eeeJJ)
16d 16f	(32eeeLL
.	32ddd)
16dJJ 16f	(32ddd
.	32cccJJJ)
16GLL	(32cccLLL
.	32bb)
16B 16d	(32bb
.	32aaJJ)
16B 16d	(32aaLL
.	32gg)
16BJJ 16d	(32gg
.	32ffJJJ)
=279	=279
8c 8e	(16.eeLL
.	32cccJk)
4A; 4c; 4f#;	[8ccc;J
.	32cccLLL]
.	(32ddd
.	32eee
.	32dddJ
8r	16.ccc)
.	32ff#JJk
=280	=280
(4G 4c	(4aa
8G) 8B	8gg)
8r;	48r
.	(48aaLLL
.	48ggJJ
.	48ffLL
.	48ee
.	48ddJJJ)
=281	=281
2r	(8.ccL
.	16gJk)
.	(8.eeL
.	16ccJk)
=282	=282
(8.cL	8gg
.	4gg
16GJk)	.
(8.eL	.
.	8gg
16cJk)	.
=283	=283
(8.FL	8cc 8gg 8aa
.	4cc 4ff 4aa
16CJk)	.
(8.AL	.
.	8cc 8ff 8aa
16FJk)	.
=284	=284
(8.CL	8cc 8ff 8gg
.	4cc 4ee 4gg
16GGJk)	.
(8.EL	.
.	8cc 8ee 8gg
16CJk)	.
=285	=285
8A 8c 8f	(16ggLL
.	16ffJ)
8r	8ffJ
8B 8d 8g	16r
.	(32eeeLLL
.	32dddJJ)
8r	(32cccLL
.	32bb)
.	(32aa
.	32ggJJJ)
=286	=286
8c 8e 8g	(16.ffLL
.	32dd#Jk
8r	8eeJ)
8E 8G 8c	16r
.	(32aaLLL
.	32ggJJ)
8r	(32ffLL
.	32ee)
.	(32dd
.	32ccJJJ)
=287	=287
*^	*
*	*	*
4d	4F	(16.bLL
.	.	32aJk)
.	.	(32ggLL
.	.	32ff
.	.	32ee
.	.	32ddJJJ
8eL	4G	8ccL)
8dJ	.	8b'J
*v	*v	*
*	*
=288	=288
8cL	(4f 4g 4b 4dd
8GJ	.
8C	8e) 8g 8cc
8r	8r
*>Variation 11	*>Variation 11
=289:|!|:	=289:|!|:
*M3/4	*M3/4
(16CCLL	4e 4g 4cc
16C	.
16BB	.
16CJJ	.
16DLL	4r
16C	.
16BB	.
16CJJ	.
16DLL	(8.ccL
16C	.
16BB	.
16CJJ)	32bLL
.	32ccJJJ
=290	=290
(16EELL	4gg)
16C	.
16BB	.
16CJJ	.
16DLL	4r
16C	.
16BB	.
16CJJ	.
16DLL	(8.ccL
16C	.
16BB	.
16CJJ)	32bLL
.	32ccJJJ)
=291	=291
(16FFLL	4cc 4gg 4aa
16C	.
16BB	.
16CJJ	.
16DLL	4cc 4ff 4aa
16C	.
16BB	.
16CJJ	.
16DLL	4cc 4ff 4aa
16C	.
16BB	.
16CJJ)	.
=292	=292
(16CCLL	4cc 4ee 4gg
16C	.
16BB	.
16CJJ	.
16DLL	4r
16C	.
16BB	.
16CJJ)	.
(16CC#LL	(8.ggL
16C#	.
16BB	.
16C#JJ)	32ff#LL
.	32ggJJJ
=293	=293
(16DDLL	4ff#)
16D	.
16C#	.
16DJJ	.
16ELL	4r
16D	.
16C#	.
16DJJ)	.
(16BBBLL	(8.ffL
16BB	.
16AA	.
16BBJJ)	32eeLL
.	32ffJJJ
=294	=294
(16CCLL	4ee)
16C	.
16BB	.
16CJJ	.
16DLL	4r
16C	.
16BB	.
16CJJ)	.
(16AAALL	(8.ccL
16AA	.
16GG#	.
16AAJJ)	32bLL
.	32ccJJJ
=295	=295
(16FFFLL	4dd
16FF	.
16EE	.
16FFJJ	.
16GGLL	4ff)
16FF	.
16EE	.
16FFJJ)	.
(16GGGLL	4d 4f 4b
16GG	.
16FF#	.
16GGJJ)	.
=296	=296
(16CCLL	4e 4g 4cc
16DD	.
16EE	.
16FFJJ	.
16GGLL	4r
16AA	.
16BB	.
16CJJ	.
4CC)	4r
=297:|!|:	=297:|!|:
16GLL	(16aaLL
(16e	16gg
16d#	16ff#
16eJJ	16ggJJ
16d#LL	16ff#LL
16e	16gg
16d#	16ff#
16eJJ	16ggJJ
16d#LL	16ff#LL
16e	16gg
16d#	16ff#
16eJJ)	16ggJJ)
=298	=298
16GLL	(16ggLL
(16d	16ff
16c#	16ee
16dJJ	16ffJJ
16c#LL	16eeLL
16d	16ff
16c#	16ee
16dJJ	16ffJJ
16c#LL	16eeLL
16d	16ff
16c#	16ee
16dJJ)	16ffJJ)
=299	=299
16GLL	(16ffLL
(16c	16ee
16B	16dd#
16cJJ	16eeJJ
16BLL	16dd#LL
16c	16ee
16B	16dd#
16cJJ	16eeJJ
16BLL	16dd#LL
16c	16ee
16B	16dd#
16cJJ)	16eeJJ)
=300	=300
16GLL	(16eeLL
(16f	16dd
16e	16cc#
16fJJ	16ddJJ
16eLL	16cc#LL
16f	16dd
16e	16cc#
16fJJ	16ddJJ
16eLL	16cc#LL
16f	16dd
16e	16cc#
16fJJ)	16ddJJ)
=301	=301
16GLL	(16aaLL
(16e	16gg
16d#	16ff#
16eJJ	16ggJJ
16d#LL	16ff#LL
16e	16gg
16d#	16ff#
16eJJ	16ggJJ
16GLL	16eeeLL
16e	16gg
16G	16eee
16eJJ)	16ggJJ)
=302	=302
16GLL	(16ggLL
(16d	16ff
16c#	16ee
16dJJ	16ffJJ
16c#LL	16eeLL
16d	16ff
16c#	16ee
16dJJ	16ffJJ
16GLL	16dddLL
16d	16ff
16G	16ddd
16dJJ)	16ffJJ)
=303	=303
16GLL	(16ffLL
(16c	16ee
16B	16dd#
16cJJ	16eeJJ
16BLL	16dd#LL
16c	16ee
16B	16dd#
16cJJ	16eeJJ
16GLL	16cccLL
16c	16gg
16G	16ccc
16cJJ)	16ggJJ)
=304	=304
16GLL	(16eeLL
(16f	16dd
16e	16cc#
16fJJ	16ddJJ
16eLL	16cc#LL
16f	16dd
16e	16cc#
16fJJ	16ddJJ
16GLL	16ggLL
16f	16b
16G	16gg
16fJJ)	16bJJ)
=305	=305
(16CLL	4e 4g 4cc
16c	.
16B	.
16cJJ	.
16dLL	4r
16c	.
16B	.
16cJJ	.
16dLL	(8.ccL
16c	.
16B	.
16cJJ)	32bLL
.	32ccJJJ
=306	=306
(16ELL	4gg)
16c	.
16B	.
16cJJ	.
16dLL	4r
16c	.
16B	.
16cJJ	.
16dLL	(8.ccL
16c	.
16B	.
16cJJ)	32bLL
.	32ccJJJ)
=307	=307
(16FLL	4cc 4gg 4aa
16c	.
16B	.
16cJJ	.
16dLL	4cc 4ff 4aa
16c	.
16B	.
16cJJ	.
16dLL	4cc 4ff 4aa
16c	.
16B	.
16cJJ)	.
=308	=308
(16CLL	4cc 4ee 4gg
16c	.
16B	.
16cJJ	.
16dLL	4r
16c	.
16B	.
16cJJ)	.
(16C#LL	(8.ggL
16c#	.
16B	.
16c#JJ)	32ff#LL
.	32ggJJJ
=309	=309
(16DLL	4ff#)
16d	.
16c#	.
16dJJ	.
16eLL	4r
16d	.
16c#	.
16dJJ)	.
(16BBLL	(8.ffL
16B	.
16A	.
16BJJ)	32eeLL
.	32ffJJJ
=310	=310
(16CLL	4ee)
16c	.
16B	.
16cJJ	.
16dLL	4r
16c	.
16B	.
16cJJ)	.
(16AALL	(8.ccL
16A	.
16G#	.
16AJJ)	32bLL
.	32ccJJJ
=311	=311
(16FFLL	4dd
16F	.
16E	.
16FJJ	.
16GLL	4ff)
16F	.
16E	.
16FJJ)	.
(16GGLL	4d 4f 4b
16G	.
16F#	.
16GJJ)	.
=312	=312
(16CLL	4e 4g 4cc
16D	.
16E	.
16FJJ	.
16GLL	4r
16A	.
16B	.
16cJJ	.
4C)	4r
*>Variation 12	*>Variation 12
=313:|!	=313:|!
(16EELL	4e 4g 4cc
16E	.
16D	.
16EJJ	.
16FLL	4r
16E	.
16D	.
16EJJ)	.
(16EE-LL	(8.ggL
16E-	.
16D	.
16E-JJ)	32ff#LL
.	32ggJJJ
=314	=314
(16DDLL	4ff#)
16D	.
16C#	.
16DJJ	.
16ELL	4r
16D	.
16C#	.
16DJJ)	.
(16BBBLL	(8.ffL
16BB	.
16AA	.
16BBJJ)	32eeLL
.	32ffJJJ
=315	=315
(16CCLL	4ee)
16C	.
16BB	.
16CJJ	.
16DLL	4r
16C	.
16BB	.
16CJJ)	.
16AAALL	(8.ccL
16AA	.
16GG#	.
16AAJJ	32bLL
.	32ccJJJ
=316	=316
(16FFFLL	4dd)
16FF	.
16EE	.
16FFJJ	.
16GGLL	4r
16FF	.
16EE	.
16FFJJ)	.
(16GGGLL	4d 4f 4b
16GG	.
16FF#	.
16GGJJ)	.
=317	=317
4CC 4EE 4C	(16ccLL
.	16g
.	16a
.	16bJJ
4r	16ccLL
.	16dd
.	16ee
.	16ffJJ
4r	16ggLL
.	16aa
.	16bb
.	16cccJJ
=318	=318
*^	*
*	*	*
8eL	2.G	16ggLL
.	.	16aa
8dJ	.	16ff
.	.	16ggJJ
8cL	.	16eeLL
.	.	16ff
8fJ	.	16dd
.	.	16eeJJ
8eL	.	16ccLL
.	.	16dd
8dJ	.	16b
.	.	16ddJJ
*v	*v	*
*	*
=319	=319
4c 4e	16ccLL
.	16g
.	16a
.	16bJJ
4r	16ccLL
.	16dd
.	16ee
.	16ffJJ
4r	16ggLL
.	16aa
.	16bb
.	16cccJJ
=320	=320
*^	*
*	*	*
8eL	2.G	16ggLL
.	.	16aa
8dJ	.	16ff
.	.	16ggJJ
8cL	.	16eeLL
.	.	16ff
8fJ	.	16dd
.	.	16eeJJ
8eL	.	16ccLL
.	.	16dd
8dJ	.	16b
.	.	16ddJJ
*v	*v	*
*	*
=321	=321
4c 4e	4cc)
4CC 4C	16r
.	(16cLL
.	16B
.	16cJJ)
4EE 4E	16r
.	(16eLL
.	16d#
.	16eJJ)
=322	=322
4GG 4G	16r
.	(16gLL
.	16f#
.	16gJJ)
4EE 4E	16r
.	(16eLL
.	16d#
.	16eJJ)
4GG 4G	16r
.	(16gLL
.	16f#
.	16gJJ)
=323	=323
4CC 4C	16r
.	(16ccLL
.	16b
.	16ccJJ)
4EE 4E	16r
.	(16eeLL
.	16dd#
.	16eeJJ)
4GG 4G	16r
.	(16ggLL
.	16ff#
.	16ggJJ)
=324	=324
4C 4E 4G 4c	4cc 4ee 4gg 4ccc
4r	4r
4r	4r
==	==
*-	*-
